X:0579
T:The Rural Thought.
N
M:6/8
L:1/8
Q:3/8=120
I: :: || :: ::
Z:Jack Campin * www.campin.me.uk * 2009
K:G
d2g d2B|A2G A2B|c2B e2d|dcB B2A|\
d2g d2B|A2G A2B|c2B e2d|cBA G3::
d2d c2B|B2B A2G|F2G A2B|c2B B2A|\
d2d c2B|B2B A2G|F2G A2B|cAF G3::
D2E D2G|F2A G2B|A2B c2B|B3  A3 |\
D2E D2G|F2A G2B|A2B c2A|G2F G3::
d2e d2g|e2f e2g|A2B c2d|c2B A2G|\
d2e d2g|e2f e2g|d2g B2g|A2B G3:|
<end>
<start>
